svgs/sharp-regular/laptop.svg

<svg xmlns="http://www.w3.org/2000/svg" viewBox="0 0 640 512"><!--! Font Awesome Pro 6.6.0 by @fontawesome - https://fontawesome.com License - https://fontawesome.com/license (Commercial License) Copyright 2024 Fonticons, Inc. --><path d="M528 80L112 80l0 240-48 0L64 80l0-48 48 0 416 0 48 0 0 48 0 240-48 0 0-240zM83.9 432l472.2 0 32-32L51.9 400l32 32zM576 480L64 480 0 416l0-16 0-48 48 0 544 0 48 0 0 48 0 16-64 64z"/></svg>

<svg xmlns="http://www.w3.org/2000/svg" viewBox="0 0 640 512"><!--! Font Awesome Pro 6.4.2 by @fontawesome - https://fontawesome.com License - https://fontawesome.com/license (Commercial License) Copyright 2023 Fonticons, Inc. --><path d="M528 80H112V320H64V80 32h48H528h48V80 320H528V80zM83.9 432H556.1l32-32H51.9l32 32zM576 480H64L0 416V400 352H48 592h48v48 16l-64 64z"/></svg>
